icon/pk/dragon-zodiac.svg

<svg viewBox="0 0 48 48" fill="none" xmlns="http://www.w3.org/2000/svg" height="1em" width="1em">
  <g clip-path="url(#clip0_12561_5854)">
    <path d="M34.0214 42.4943L37.7612 38.7545C40.1043 36.4113 40.1043 32.6123 37.7612 30.2692V30.2692C35.418 27.926 31.6191 27.926 29.2759 30.2692L27.0449 32.5002" stroke="black" stroke-width="4" stroke-linecap="round"/>
    <path d="M17.0746 25.5002L23.6191 18.9556C25.9623 16.6125 25.9623 12.8135 23.6191 10.4704V10.4704C21.276 8.12722 17.477 8.12722 15.1338 10.4704L8.06276 17.5414" stroke="black" stroke-width="4" stroke-linecap="round"/>
    <path d="M17.0748 25.5002L8.76957 33.8055C6.42642 36.1486 6.42642 39.9476 8.76957 42.2907V42.2907C11.1127 44.6339 14.9117 44.6339 17.2548 42.2907L27.0211 32.5245" stroke="black" stroke-width="4" stroke-linecap="round"/>
    <path d="M13 11.9999V3.99988" stroke="black" stroke-width="4" stroke-linecap="round" stroke-linejoin="round"/>
    <path d="M38 30L43 25" stroke="black" stroke-width="4" stroke-linecap="round" stroke-linejoin="round"/>
  </g>
  <defs>
    <clipPath id="clip0_12561_5854">
      <rect width="48" height="48" fill="white"/>
    </clipPath>
  </defs>
</svg>

<svg width="48" height="48" fill="none" xmlns="http://www.w3.org/2000/svg"><g clip-path="url(#a)" stroke="#000" stroke-width="4" stroke-linecap="round"><path d="m34.021 42.494 3.74-3.74a6 6 0 0 0 0-8.485v0a6 6 0 0 0-8.485 0L27.045 32.5M17.075 25.5l6.544-6.544a6 6 0 0 0 0-8.486v0a6 6 0 0 0-8.485 0l-7.071 7.071M17.075 25.5 8.77 33.806a6 6 0 0 0 0 8.485v0a6 6 0 0 0 8.485 0l9.766-9.766"/><path d="M13 12V4M38 30l5-5" stroke-linejoin="round"/></g><defs><clipPath id="a"><path fill="#fff" d="M0 0h48v48H0z"/></clipPath></defs></svg>
